assets/circle-info.svg

<svg xmlns="http://www.w3.org/2000/svg" viewBox="0 0 512 512"><path d="M256 16C123.451 16 16 123.451 16 256s107.451 240 240 240 240-107.451 240-240S388.549 16 256 16Zm0 432c-105.869 0-192-86.131-192-192S150.131 64 256 64s192 86.131 192 192-86.131 192-192 192Zm40-112h-16v-88c0-13.25-10.75-24-24-24h-32c-13.25 0-24 10.75-24 24s10.75 24 24 24h8v64h-16c-13.25 0-24 10.75-24 24s10.75 24 24 24h80c13.25 0 24-10.75 24-24s-10.75-24-24-24Zm-40-144c17.674 0 32-14.328 32-32 0-17.674-14.326-32-32-32s-32 14.326-32 32c0 17.672 14.326 32 32 32Z"/></svg>

<svg xmlns="http://www.w3.org/2000/svg" viewBox="0 0 512 512"><!-- Font Awesome Pro 6.0.0-alpha2 by @fontawesome - https://fontawesome.com License - https://fontawesome.com/license (Commercial License) --><path d="M256 16C123.451 16 16 123.451 16 256S123.451 496 256 496S496 388.549 496 256S388.549 16 256 16ZM256 448C150.131 448 64 361.869 64 256S150.131 64 256 64S448 150.131 448 256S361.869 448 256 448ZM296 336H280V248C280 234.75 269.25 224 256 224H224C210.75 224 200 234.75 200 248S210.75 272 224 272H232V336H216C202.75 336 192 346.75 192 360S202.75 384 216 384H296C309.25 384 320 373.25 320 360S309.25 336 296 336ZM256 192C273.674 192 288 177.672 288 160C288 142.326 273.674 128 256 128S224 142.326 224 160C224 177.672 238.326 192 256 192Z"/></svg>
